assets/img/braze_icons/share-02.svg

<svg fill="none" height="24" viewBox="0 0 24 24" width="24" xmlns="http://www.w3.org/2000/svg"><g fill="#801ed7"><path d="m11.2929 2.29289c.3905-.39052 1.0237-.39052 1.4142 0l4 4c.3905.39053.3905 1.02369 0 1.41422-.3905.39052-1.0237.39052-1.4142 0l-2.2929-2.2929v9.58579c0 .5523-.4477 1-1 1s-1-.4477-1-1v-9.58579l-2.29289 2.2929c-.39053.39052-1.02369.39052-1.41422 0-.39052-.39053-.39052-1.02369 0-1.41422z"/><path d="m6.86239 10 .13758.0001c.55229 0 1 .4477 1 1s-.44771 1-1 1c-.99435 0-1.29536.0086-1.51763.0681-.69019.185-1.22928.7241-1.41422 1.4143-.05956.2222-.06815.5232-.06815 1.5176v1.2c0 .8566.00078 1.4389.03756 1.889.03582.4384.10074.6626.18043.819.19175.3763.49771.6823.87403.874.1564.0797.38061.1446.81902.1804.45009.0368 1.03238.0376 1.88896.0376h8.40003c.8566 0 1.4388-.0008 1.8889-.0376.4385-.0358.6627-.1007.8191-.1804.3763-.1917.6822-.4977.874-.874.0797-.1564.1446-.3806.1804-.819.0368-.4501.0376-1.0324.0376-1.889v-1.2c0-.9944-.0086-1.2954-.0682-1.5176-.1849-.6902-.724-1.2293-1.4142-1.4143-.2223-.0595-.5233-.0681-1.5176-.0681-.5523 0-1-.4477-1-1s.4477-1 1-1l.1376-.0001c.7953-.00038 1.386-.0007 1.8977.1364 1.3803.3699 2.4585 1.4481 2.8284 2.8284.1371.5117.1368 1.1023.1363 1.8977v1.3789c0 .805 0 1.4693-.0442 2.0105-.0459.5621-.1445 1.0788-.3918 1.5642-.3835.7526-.9954 1.3645-1.7481 1.748-.4853.2473-1.002.3459-1.5641.3918-.5412.0442-1.2056.0442-2.0105.0442h-8.4826c-.80498 0-1.46935 0-2.01055-.0442-.5621-.0459-1.0788-.1445-1.56414-.3918-.75265-.3835-1.36457-.9954-1.74806-1.748-.24729-.4854-.34586-1.0021-.39178-1.5642-.04422-.5412-.04421-1.2055-.0442-2.0105l-.00004-1.3789c-.00044-.7954-.00076-1.386.13634-1.8977.36987-1.3803 1.44806-2.4585 2.82843-2.8284.51165-.1371 1.10231-.13678 1.89769-.1364z"/></g></svg>

<svg width="24" height="24" viewBox="0 0 24 24" fill="none" xmlns="http://www.w3.org/2000/svg">
<path d="M11.2929 2.29289C11.6834 1.90237 12.3166 1.90237 12.7071 2.29289L16.7071 6.29289C17.0976 6.68342 17.0976 7.31658 16.7071 7.70711C16.3166 8.09763 15.6834 8.09763 15.2929 7.70711L13 5.41421L13 15C13 15.5523 12.5523 16 12 16C11.4477 16 11 15.5523 11 15L11 5.41421L8.70711 7.70711C8.31658 8.09763 7.68342 8.09763 7.29289 7.70711C6.90237 7.31658 6.90237 6.68342 7.29289 6.29289L11.2929 2.29289Z" fill="#801ED7"/>
<path d="M6.86239 10L6.99997 10.0001C7.55226 10.0001 7.99997 10.4478 7.99997 11.0001C7.99997 11.5524 7.55226 12.0001 6.99997 12.0001C6.00562 12.0001 5.70461 12.0087 5.48234 12.0682C4.79215 12.2532 4.25306 12.7923 4.06812 13.4825C4.00856 13.7047 3.99997 14.0057 3.99997 15.0001V16.2001C3.99997 17.0567 4.00075 17.639 4.03753 18.0891C4.07335 18.5275 4.13827 18.7517 4.21796 18.9081C4.40971 19.2844 4.71567 19.5904 5.09199 19.7821C5.24839 19.8618 5.4726 19.9267 5.91101 19.9625C6.3611 19.9993 6.94339 20.0001 7.79997 20.0001H16.2C17.0566 20.0001 17.6388 19.9993 18.0889 19.9625C18.5274 19.9267 18.7516 19.8618 18.908 19.7821C19.2843 19.5904 19.5902 19.2844 19.782 18.9081C19.8617 18.7517 19.9266 18.5275 19.9624 18.0891C19.9992 17.639 20 17.0567 20 16.2001V15.0001C20 14.0057 19.9914 13.7047 19.9318 13.4825C19.7469 12.7923 19.2078 12.2532 18.5176 12.0682C18.2953 12.0087 17.9943 12.0001 17 12.0001C16.4477 12.0001 16 11.5524 16 11.0001C16 10.4478 16.4477 10.0001 17 10.0001L17.1376 10C17.9329 9.99962 18.5236 9.9993 19.0353 10.1364C20.4156 10.5063 21.4938 11.5845 21.8637 12.9648C22.0008 13.4765 22.0005 14.0671 22 14.8625L22 16.2414C22 17.0464 22 17.7107 21.9558 18.2519C21.9099 18.814 21.8113 19.3307 21.564 19.8161C21.1805 20.5687 20.5686 21.1806 19.8159 21.5641C19.3306 21.8114 18.8139 21.91 18.2518 21.9559C17.7106 22.0001 17.0462 22.0001 16.2413 22.0001H7.7587C6.95372 22.0001 6.28935 22.0001 5.74815 21.9559C5.18605 21.91 4.66935 21.8114 4.18401 21.5641C3.43136 21.1806 2.81944 20.5687 2.43595 19.8161C2.18866 19.3307 2.09009 18.814 2.04417 18.2519C1.99995 17.7107 1.99996 17.0464 1.99997 16.2414L1.99993 14.8625C1.99949 14.0671 1.99917 13.4765 2.13627 12.9648C2.50614 11.5845 3.58433 10.5063 4.9647 10.1364C5.47635 9.9993 6.06701 9.99962 6.86239 10Z" fill="#801ED7"/>
</svg>
